src/16/actions/view-filter-rtl.svg

<svg xmlns="http://www.w3.org/2000/svg" width="16" height="16"><defs><style id="current-color-scheme" type="text/css"></style></defs><path d="M9 2v12h1V2H9zM1 3v2h2V3H1zm4 0v2h2V3H5zm7 0v1h2V3h-2zm0 3v1h2V6h-2zM1 7v2h2V7H1zm4 0v2h2V7H5zm7 2v1h2V9h-2zM1 11v2h2v-2H1zm4 0v2h2v-2H5zm7 1v1h2v-1h-2z" fill="currentColor" color="#565656"/></svg>

<svg xmlns="http://www.w3.org/2000/svg" width="16" height="16" viewBox="0 0 16 16">
 <defs>
  <style id="current-color-scheme" type="text/css">
   .ColorScheme-Text { color:#565656; } .ColorScheme-Highlight { color:#5294e2; }
  </style>
 </defs>
 <path style="fill:currentColor" class="ColorScheme-Text" d="M 9 2 L 9 14 L 10 14 L 10 2 L 9 2 z M 1 3 L 1 5 L 3 5 L 3 3 L 1 3 z M 5 3 L 5 5 L 7 5 L 7 3 L 5 3 z M 12 3 L 12 4 L 14 4 L 14 3 L 12 3 z M 12 6 L 12 7 L 14 7 L 14 6 L 12 6 z M 1 7 L 1 9 L 3 9 L 3 7 L 1 7 z M 5 7 L 5 9 L 7 9 L 7 7 L 5 7 z M 12 9 L 12 10 L 14 10 L 14 9 L 12 9 z M 1 11 L 1 13 L 3 13 L 3 11 L 1 11 z M 5 11 L 5 13 L 7 13 L 7 11 L 5 11 z M 12 12 L 12 13 L 14 13 L 14 12 L 12 12 z"/>
</svg>
